assets/iconset/svg/arrow_expand_alt.svg

<?xml version="1.0" encoding="UTF-8" standalone="no"?>
<!-- Generator: IcoMoon.io -->

<svg
   xmlns:dc="http://purl.org/dc/elements/1.1/"
   xmlns:cc="http://creativecommons.org/ns#"
   xmlns:rdf="http://www.w3.org/1999/02/22-rdf-syntax-ns#"
   xmlns:svg="http://www.w3.org/2000/svg"
   xmlns="http://www.w3.org/2000/svg"
   xmlns:sodipodi="http://sodipodi.sourceforge.net/DTD/sodipodi-0.dtd"
   xmlns:inkscape="http://www.inkscape.org/namespaces/inkscape"
   width="32"
   height="32"
   viewBox="0 0 32 32"
   fill="#000000"
   version="1.1"
   id="svg6"
   sodipodi:docname="arrow_expand_alt.svg"
   inkscape:version="0.92.1 r15371">
  <metadata
     id="metadata12">
    <rdf:RDF>
      <cc:Work
         rdf:about="">
        <dc:format>image/svg+xml</dc:format>
        <dc:type
           rdf:resource="http://purl.org/dc/dcmitype/StillImage" />
      </cc:Work>
    </rdf:RDF>
  </metadata>
  <defs
     id="defs10" />
  <sodipodi:namedview
     pagecolor="#ffffff"
     bordercolor="#666666"
     borderopacity="1"
     objecttolerance="10"
     gridtolerance="10"
     guidetolerance="10"
     inkscape:pageopacity="0"
     inkscape:pageshadow="2"
     inkscape:window-width="1920"
     inkscape:window-height="1016"
     id="namedview8"
     showgrid="false"
     inkscape:zoom="7.375"
     inkscape:cx="-7.3898309"
     inkscape:cy="15.457627"
     inkscape:window-x="0"
     inkscape:window-y="27"
     inkscape:window-maximized="1"
     inkscape:current-layer="svg6" />
  <g
     id="g4"
     transform="matrix(-0.68336277,0.68336277,-0.68336277,-0.68336277,37.867609,16.001623)">
    <path
       d="m 5,16 c -0.552,0 -1,0.448 -1,1 v 10 c 0,0.002 0,0.002 0,0.004 0,0.13 0.026,0.258 0.076,0.378 0.048,0.118 0.12,0.224 0.208,0.314 0.004,0.004 0.004,0.008 0.008,0.012 0.002,0.002 0.006,0.002 0.008,0.006 0.09,0.088 0.198,0.162 0.316,0.21 C 4.74,27.974 4.87,28 5,28 h 10 c 0.552,0 1,-0.448 1,-1 0,-0.552 -0.448,-1 -1,-1 H 7.414 L 26,7.414 V 15 c 0,0.552 0.448,1 1,1 0.552,0 1,-0.448 1,-1 V 5 5 C 28,4.87 27.974,4.74 27.922,4.618 27.82,4.374 27.626,4.178 27.382,4.078 27.26,4.026 27.13,4 27,4 H 17 c -0.552,0 -1,0.448 -1,1 0,0.552 0.448,1 1,1 h 7.586 L 6,24.586 V 17 C 6,16.448 5.552,16 5,16 Z"
       id="path2"
       inkscape:connector-curvature="0" />
  </g>
</svg>

<?xml version="1.0" encoding="utf-8"?> <!-- Generator: IcoMoon.io --> <!DOCTYPE svg PUBLIC "-//W3C//DTD SVG 1.1//EN" "http://www.w3.org/Graphics/SVG/1.1/DTD/svg11.dtd"> <svg width="32" height="32" viewBox="0 0 32 32" xmlns="http://www.w3.org/2000/svg" xmlns:xlink="http://www.w3.org/1999/xlink" fill="#000000"><g><path d="M 5,16C 4.448,16, 4,16.448, 4,17l0,10 c0,0.002,0,0.002,0,0.004c0,0.13, 0.026,0.258, 0.076,0.378 c 0.048,0.118, 0.12,0.224, 0.208,0.314c 0.004,0.004, 0.004,0.008, 0.008,0.012c 0.002,0.002, 0.006,0.002, 0.008,0.006 c 0.090,0.088, 0.198,0.162, 0.316,0.21C 4.74,27.974, 4.87,28, 5,28l 10,0 C 15.552,28, 16,27.552, 16,27C 16,26.448, 15.552,26, 15,26L 7.414,26 L 26,7.414L 26,15 C 26,15.552, 26.448,16, 27,16S 28,15.552, 28,15l0-10 l0,0c0-0.13-0.026-0.26-0.078-0.382c-0.102-0.244-0.296-0.44-0.54-0.54 C 27.26,4.026, 27.13,4, 27,4l-10,0 C 16.448,4, 16,4.448, 16,5C 16,5.552, 16.448,6, 17,6l 7.586,0 L 6,24.586L 6,17 C 6,16.448, 5.552,16, 5,16z"></path></g></svg>
